X:41
T:The Bee's Wing
C:James Hill
M:4/4
L:1/8
R:hornpipe
K:Bb
FA | BfdB AecA | FdBF DBFD | EGBe DFBd | (3cBA (3BAG F2GA |
Bfdb Afca | EBGe DBFd | EGBe dcBA | c2B2 B2 ::
fe | dBfd bfdB | cAfc afcA | GEBG ecdB | (3cBA (3BAG F2GA |
Bfdb Afca | EBGe DBFd | EGBe dcBA | c2B2 B2 :|
